material/.icons/material/language-markdown.svg

<svg xmlns="http://www.w3.org/2000/svg" viewBox="0 0 24 24"><path d="M20.56 18H3.44C2.65 18 2 17.37 2 16.59V7.41C2 6.63 2.65 6 3.44 6h17.12c.79 0 1.44.63 1.44 1.41v9.18c0 .78-.65 1.41-1.44 1.41M6.81 15.19v-3.66l1.92 2.35 1.92-2.35v3.66h1.93V8.81h-1.93l-1.92 2.35-1.92-2.35H4.89v6.38h1.92M19.69 12h-1.92V8.81h-1.92V12h-1.93l2.89 3.28L19.69 12z"/></svg>

<?xml version="1.0" encoding="UTF-8"?><!DOCTYPE svg PUBLIC "-//W3C//DTD SVG 1.1//EN" "http://www.w3.org/Graphics/SVG/1.1/DTD/svg11.dtd"><svg xmlns="http://www.w3.org/2000/svg" xmlns:xlink="http://www.w3.org/1999/xlink" version="1.1" id="mdi-language-markdown" width="24" height="24" viewBox="0 0 24 24"><path d="M20.56 18H3.44C2.65 18 2 17.37 2 16.59V7.41C2 6.63 2.65 6 3.44 6H20.56C21.35 6 22 6.63 22 7.41V16.59C22 17.37 21.35 18 20.56 18M6.81 15.19V11.53L8.73 13.88L10.65 11.53V15.19H12.58V8.81H10.65L8.73 11.16L6.81 8.81H4.89V15.19H6.81M19.69 12H17.77V8.81H15.85V12H13.92L16.81 15.28L19.69 12Z" /></svg>
